src/assets/svg/icons/fa/nuevos/classic/light/location-pen classic light.svg

<svg xmlns="http://www.w3.org/2000/svg" viewBox="0 0 384 512"><!--! Font Awesome Pro 6.4.0 by @fontawesome - https://fontawesome.com License - https://fontawesome.com/license (Commercial License) Copyright 2023 Fonticons, Inc. --><path d="M352 192c0-88.4-71.6-160-160-160S32 103.6 32 192c0 15.6 5.4 37 16.6 63.4c10.9 25.9 26.2 54 43.6 82.1c34.1 55.3 74.4 108.2 99.9 140c25.4-31.8 65.8-84.7 99.9-140c17.3-28.1 32.7-56.3 43.6-82.1C346.6 229 352 207.6 352 192zm32 0c0 87.4-117 243-168.3 307.2c-12.3 15.3-35.1 15.3-47.4 0C117 435 0 279.4 0 192C0 86 86 0 192 0S384 86 384 192zM252.3 131.7c-4.9-4.9-12.9-4.9-17.8 0l-8.1 8.1 17.8 17.8 8.1-8.1c4.9-4.9 4.9-12.9 0-17.8zM143.1 223.1c-2 2.1-3.5 4.6-4.2 7.4L134 250l19.4-4.9c2.8-.7 5.4-2.2 7.4-4.2l60.7-60.7-17.8-17.8-60.7 60.7zM211.8 109c17.4-17.4 45.7-17.4 63.1 0c17.4 17.4 17.4 45.6 0 63l-91.4 91.5c-6.2 6.2-13.9 10.5-22.3 12.6l-45.3 11.3c-5.5 1.4-11.2-.2-15.2-4.2s-5.6-9.7-4.2-15.2l11.3-45.3c2.1-8.4 6.5-16.1 12.6-22.3L211.8 109z"/></svg>

<svg xmlns="http://www.w3.org/2000/svg" viewBox="0 0 384 512"><path d="M211.8 109C229.2 91.62 257.5 91.62 274.9 109C292.3 126.5 292.3 154.7 274.9 172.1L183.5 263.6C177.3 269.7 169.6 274.1 161.2 276.2L115.9 287.5C110.4 288.9 104.7 287.3 100.7 283.3C96.71 279.4 95.12 273.6 96.48 268.1L107.8 222.8C109.9 214.4 114.3 206.7 120.4 200.5L211.8 109zM252.3 131.7C247.4 126.7 239.4 126.7 234.5 131.7L226.4 139.8L244.2 157.6L252.3 149.5C257.2 144.6 257.2 136.6 252.3 131.7V131.7zM138.8 230.6L133.1 250L153.4 245.2C156.2 244.5 158.8 243 160.8 240.1L221.6 180.2L203.8 162.4L143.1 223.1C141 225.2 139.6 227.8 138.8 230.6zM384 192C384 279.4 267 435 215.7 499.2C203.4 514.5 180.6 514.5 168.3 499.2C116.1 435 0 279.4 0 192C0 85.96 85.96 0 192 0C298 0 384 85.96 384 192H384zM192 32C103.6 32 32 103.6 32 192C32 207.6 37.43 229 48.56 255.4C59.47 281.3 74.8 309.4 92.14 337.5C126.2 392.8 166.6 445.7 192 477.6C217.4 445.7 257.8 392.8 291.9 337.5C309.2 309.4 324.5 281.3 335.4 255.4C346.6 229 352 207.6 352 192C352 103.6 280.4 32 192 32z"/></svg>
